app/dist/common/images/amgen.svg

<svg height="18" width="18" xmlns="http://www.w3.org/2000/svg"><path d="m0 0h18v18h-18z" fill="#2162a5"/><path d="m4.075 12.78-.075.22h2.7l.712-1.8h2.888v1.8h2.7v-8.997l-.45-.003c-3.378 0-5.364 1.94-6.687 4.464-.522.991-.998 2.025-1.356 3.07l-.432 1.245zm6.225-3.38h-2.25c.45-1.35 1.145-2.333 2.25-2.776z" fill="#fff"/></svg>

<!-- by TradingView --><svg width="18" height="18" xmlns="http://www.w3.org/2000/svg"><path fill="#2162A5" d="M0 0h18v18H0z"/><path d="M4.075 12.78L4 13h2.7l.712-1.8H10.3V13H13V4.003L12.55 4C9.172 4 7.186 5.94 5.863 8.464c-.522.991-.998 2.025-1.356 3.07l-.432 1.245zM10.3 9.4H8.05c.45-1.35 1.145-2.333 2.25-2.776V9.4z" fill="#fff"/></svg>
